modules/themify-icons/icons/layout-placeholder.svg

<?xml version="1.0" encoding="utf-8"?>
<!-- Generated by IcoMoon.io -->
<!DOCTYPE svg PUBLIC "-//W3C//DTD SVG 1.1//EN" "http://www.w3.org/Graphics/SVG/1.1/DTD/svg11.dtd">
<svg version="1.1" xmlns="http://www.w3.org/2000/svg" xmlns:xlink="http://www.w3.org/1999/xlink" width="17" height="17" viewBox="0 0 17 17">
<g>
</g>
	<path d="M0.021 1.012v15h17v-15h-17zM8.137 8.509l-7.116 6.197v-12.412l7.116 6.215zM1.459 2.012h14.138l-7.079 6.165-7.059-6.165zM8.517 8.841l7.066 6.171h-14.152l7.086-6.171zM8.898 8.509l7.123-6.204v12.425l-7.123-6.221z" fill="#000000" />
</svg>

<svg xmlns="http://www.w3.org/2000/svg" width="17" height="17"><path d="M.021 1.012v15h17v-15h-17zm8.116 7.497l-7.116 6.197V2.294l7.116 6.215zM1.459 2.012h14.138L8.518 8.177 1.459 2.012zm7.058 6.829l7.066 6.171H1.431l7.086-6.171zm.381-.332l7.123-6.204V14.73L8.898 8.509z"/></svg>
